kora/actions/scalable/tab-new-background.svg

<svg xmlns="http://www.w3.org/2000/svg" style="fill-rule:evenodd;clip-rule:evenodd;stroke-linejoin:round;stroke-miterlimit:2" width="100%" height="100%" version="1.1" viewBox="0 0 16 16" xml:space="preserve">
 <defs>
  <style id="current-color-scheme" type="text/css">
   .ColorScheme-Text { color:#dfdfdf; } .ColorScheme-Highlight { color:#4285f4; } .ColorScheme-NeutralText { color:#ff9800; } .ColorScheme-PositiveText { color:#4caf50; } .ColorScheme-NegativeText { color:#f44336; }
  </style>
 </defs>
 <path style="fill:currentColor;fill-opacity:0.3" class="ColorScheme-Text" d="M4,2c0,0 -2,0 -2,2l0,7c0,1 -1,1 -1,1l-1,0l0,2l16,0l0,-2l-1,0c0,0 -1,0 -1,-1l0,-7c0,0 0,-2 -2,-2l-8,0Z"/>
 <path style="fill:currentColor;" class="ColorScheme-Text" d="M7,5l2,0l0,2l2,0l0,2l-2,0l0,2l-2,0l0,-2l-2,0l0,-2l2,0l0,-2Z"/>
</svg>

<svg xmlns="http://www.w3.org/2000/svg" width="16" height="16">
 <defs>
  <style id="current-color-scheme" type="text/css">
   .ColorScheme-Text { color:#dfdfdf; } .ColorScheme-Highlight { color:#4285f4; }
  </style>
 </defs>
 <path style="fill:currentColor;opacity:0.3" class="ColorScheme-Text" d="M 4 2 C 4 2 2 2 2 4 L 2 11 C 2 12 1 12 1 12 L 0 12 L 0 14 L 16 14 L 16 12 L 15 12 C 15 12 14 12 14 11 L 14 4 C 14 4 14 2 12 2 L 4 2 z M 7 5 L 9 5 L 9 7 L 11 7 L 11 9 L 9 9 L 9 11 L 7 11 L 7 9 L 5 9 L 5 7 L 7 7 L 7 5 z"/>
</svg>
